X:1
T: Sammeles Annas brudpolska
S: Utlärd av Jonas Hjalmarsson
Z: Karin Arén
M: 3/4
L: 1/8
K: Dm
v(A |: d/e/)d/^c/ (AB) G>A | (F/D/)F/A/ (^cd) e>f |1 (d/e/)d/^c/ (AB) G>B | (A<F) [A3E3] v(A
:|2 (d/e/)d/^c/ (Ag) f>e | (d^c) ud4 |: {DEFG}vA2 a2 g>e | f>(a (3g/a/g/)f/g/ ag/a/ | u(=ba) g>(e f/e/)f/g/ |1 
v(ag) e4 :|2 v(a^c) d3 v(e|:g/a/)g/f/ (de) ^c>A | (d/^c/)d/f/ e3 (e
|1 f/e/)f/a/ (g/a/g/e/) f(e/f/) | vd>(e fg) e>g :|2f/e/)f/a/ (g/a/)g/e/ fe/d/ | ue^c d4 |]

